X: 106
T:La baigneuse
M:3/4
L:1/4
R:Valse
O:France
K:C
efg|cde|ABd|c2B|def|dag|1fdc|e3:|2gAB|c3|
GAG|f3|edc|e3|dcB|dcB|AcB|A2G|GAG|f3|
edc|e3|dcB|Aag|fAB|c3||
W:
W: From "Falaleiro" http://home.t-online.de/home/pheld/homepage.htm
